X: 2
T: Elizabeth Kelly's Delight
R: slip jig
M: 9/8
L: 1/8
K: Ador
|:A3 ABA AGE|A2 E G2 E DEG|1 A3 ABA AGE|~G3 G2 E DEG:|2 cBA BAG AGE|~G3 G2 E DEG||
|:cBA BAG AGE|c2 A BGE DEG|cBA BAG AGE|GAG G2 E DEG:|
|:E3 EFE EDB,|E2 B,D2 B, A,B,D|~E3 EFE EDB,|DED D2 B, A,B,D:|
|:G2 E FGD EDB,|G2 E FDB, A,B,D|GFE FED EDB,|DED D2 B, A,B,D:|


Tune 953	Setting 28580

